X:1
T:Jigg,A. TJD.52
T:Jigg,A. TJD.52
T:Miller
C:Miller
L:1/8
Q:1/4=120
M:6/8
K:G
V:1 treble 
V:1
 G2 G (GF).G | A2 A A3 | B2 B Bcd | edc BcA | G2 G (GF).G | A2 A A3 | BcB AGF | G2 G G3 :| %8
 ddd ddd | dgb d3 | ccc ccc | cfa c3 | BBB Bcd | AAA ABc | BAG dcB | B3 A3!D.C.! |] %16

